brandFactory_export/3.Masa/Bateria vacia_Baja_3Masa.svg

<?xml version="1.0" encoding="UTF-8"?>
<svg width="24px" height="24px" viewBox="0 0 24 24" version="1.1" xmlns="http://www.w3.org/2000/svg" xmlns:xlink="http://www.w3.org/1999/xlink">
    <title>3.Masa/Bateria vacia_Baja_3Masa</title>
    <g id="Symbols" stroke="none" stroke-width="1" fill="none" fill-rule="evenodd">
        <g id="3.Masa/Bateria-vacia_Baja_3Masa" fill="#5CB615" fill-rule="nonzero">
            <path d="M18.7310924,19.7747899 L18.7310924,6.4605042 C18.7310924,5.4789916 18.4991597,4.77647059 18.0252101,4.31596639 C17.5512605,3.85210084 16.8285714,3.62689076 15.8168067,3.62689076 L8.9697479,3.62689076 C7.96806723,3.62689076 7.2487395,3.85882353 6.76470588,4.33277311 C6.28739496,4.80336134 6.05546218,5.49579832 6.05546218,6.4605042 L6.05546218,19.7714286 C6.05546218,20.7596639 6.28739496,21.4655462 6.76470588,21.9260504 C7.23865546,22.3831933 7.95798319,22.605042 8.9697479,22.605042 L15.8134454,22.605042 C16.8252101,22.605042 17.5445378,22.3831933 18.0184874,21.9260504 C18.4957983,21.4689076 18.7310924,20.7630252 18.7310924,19.7747899 Z M10.2369748,1.81176471 L10.2369748,2.61176471 L14.5462185,2.61176471 L14.5462185,1.81176471 C14.5462185,1.37142857 14.4084034,1.23697479 14.3647059,1.19327731 C14.3176471,1.14957983 14.1831933,1.01512605 13.7294118,1.01512605 L11.0571429,1.01512605 C10.610084,1.01512605 10.4689076,1.15294118 10.4252101,1.2 C10.3781513,1.24369748 10.2369748,1.38151261 10.2369748,1.81176471 Z M18.7647059,3.6 C19.4436975,4.26218487 19.7731092,5.19663866 19.7731092,6.46386555 L19.7731092,19.7747899 C19.7731092,21.0487395 19.4403361,21.989916 18.7546218,22.6521008 C18.0789916,23.307563 17.1142857,23.6268908 15.8134454,23.6268908 L8.9697479,23.6268908 C7.66890756,23.6268908 6.70756303,23.307563 6.02857143,22.6521008 C5.34285714,21.9932773 5.01008403,21.0521008 5.01008403,19.7781513 L5.01008403,6.4605042 C5.01008403,5.21680672 5.34285714,4.28571429 6.02184874,3.61680672 C6.71428571,2.93781513 7.67563025,2.60840336 8.9697479,2.60840336 L9.19495798,2.60840336 L9.19495798,1.81176471 C9.19495798,1.24705882 9.35966387,0.8 9.68235294,0.484033613 C10.005042,0.164705882 10.4689076,0 11.0571429,0 L13.7294118,0 C14.3176471,0 14.7815126,0.161344538 15.1042017,0.477310924 C15.4336134,0.796638655 15.5915966,1.23361345 15.5915966,1.81176471 L15.5915966,2.61176471 L15.8134454,2.61176471 C17.1176471,2.61176471 18.0823529,2.93445378 18.7647059,3.6 Z M15.1882353,20.4470588 C15.9512605,20.4470588 16.5831933,19.8823529 16.6571429,19.1563025 L8.12268908,19.1563025 C8.2,19.8823529 8.82857143,20.4470588 9.59159664,20.4470588 L15.1882353,20.4470588 Z M17.1882353,18.1411765 C17.4773109,18.1411765 17.7092437,18.3697479 17.7092437,18.6487395 L17.7092437,19.0084034 C17.7092437,20.3630252 16.5798319,21.4621849 15.1882353,21.4621849 L9.59495798,21.4621849 C8.20336134,21.4621849 7.07058824,20.3630252 7.07058824,19.0084034 L7.07058824,18.6487395 C7.07058824,18.3697479 7.30588235,18.1411765 7.59159664,18.1411765 L17.1882353,18.1411765 Z" id="Bateria-vacia_Baja_3Masa"></path>
        </g>
    </g>
</svg>

<svg width="24" height="24" viewBox="0 0 24 24" xmlns="http://www.w3.org/2000/svg"><path d="M18.731 19.775V6.46c0-.982-.232-1.685-.706-2.145-.474-.464-1.196-.69-2.208-.69H8.97c-1.002 0-1.721.233-2.205.707-.478.47-.71 1.163-.71 2.128v13.31c0 .989.232 1.695.71 2.155.474.457 1.193.679 2.205.679h6.843c1.012 0 1.732-.222 2.205-.679.478-.457.713-1.163.713-2.151zM10.237 1.812v.8h4.31v-.8c0-.44-.139-.575-.182-.619-.047-.043-.182-.178-.636-.178h-2.672c-.447 0-.588.138-.632.185-.047.044-.188.182-.188.612zM18.765 3.6c.679.662 1.008 1.597 1.008 2.864v13.31c0 1.275-.333 2.216-1.018 2.878-.676.656-1.64.975-2.942.975H8.97c-1.301 0-2.262-.32-2.941-.975-.686-.659-1.019-1.6-1.019-2.874V6.461c0-1.244.333-2.175 1.012-2.844.692-.68 1.654-1.009 2.948-1.009h.225v-.796c0-.565.165-1.012.487-1.328.323-.32.787-.484 1.375-.484h2.672c.589 0 1.053.161 1.375.477.33.32.488.757.488 1.335v.8h.221c1.305 0 2.27.322 2.952.988zm-3.577 16.847c.763 0 1.395-.565 1.47-1.29H8.122c.077.725.706 1.29 1.469 1.29h5.596zm2-2.306c.29 0 .521.229.521.508v.36c0 1.354-1.13 2.453-2.52 2.453H9.594c-1.392 0-2.524-1.099-2.524-2.454v-.36c0-.278.235-.507.52-.507h9.597z" fill="#5CB615" fill-rule="nonzero"/></svg>
